X: 2122
T:Årsundavalsen
O:Efter A. Andersson
R:Vals
S:Lösblad Gästrikands Spelmansförbund 119
Z:Göran Hed, 2011
M: 3/4
L: 18 
K: D % key signature
fg|:a2 fdAF | D2 FAdc | B2 GFGA | B4 ef |
 g2 ecAG | E2 Acec | d2 defg | a4 fg |
a2 fd AF | D2 FAdc | B2 GFGA | B4 ef |
 g2 ecAG | E2 Acec | d2 dfaf | d4 fg :|
|:a4 f2 | d2 e2 f2 | g4 B2 | B6 |Ae ae ae |
 Ae ae ae | df af af | d2 f2 g2| a4 f2 |d2 e2 f2 |
g4 B2 | B6 | Ae ae ae | Ae ae ae | df af af |1 d2 f2 g2 :|2 d4|
(:musicend:)
(:music:)
